assets/Roller coaster/Flat/roller_coaster_flat.svg

<svg width="32" height="32" viewBox="0 0 32 32" fill="none" xmlns="http://www.w3.org/2000/svg">
<path d="M30 4.43994H29V29.4399H30V4.43994ZM26 6.33997H27V29.44H26V6.33997ZM24 9.29004H23V29.44H24V9.29004ZM20 12.39H21V29.44H20V12.39ZM18 15.4H17V29.44H18V15.4ZM14 18.4399H15V29.4399H14V18.4399ZM12 20.29H11V29.44H12V20.29ZM3 20.5601V29.4401H2V20.5601H3ZM6 21.4399H5V29.4399H6V21.4399ZM8 21.4399H9V29.4399H8V21.4399Z" fill="#9B9B9B"/>
<path d="M24.67 6.80052L13.31 18.1605C10.31 21.1605 5.77 21.9005 2 20.0905V22.2505C3.39 22.7905 4.84 23.0705 6.28 23.0705C9.36 23.0705 12.41 21.8705 14.72 19.5705L26.08 8.21053C27.17 7.12053 28.53 6.39053 30 6.07053V4.04053C27.99 4.38053 26.14 5.32052 24.67 6.80052Z" fill="#F8312F"/>
<path d="M22.2126 8.33788L24.7126 5.83788C25.2326 5.31788 25.2326 4.47788 24.7126 3.96788C24.1926 3.44788 23.3626 3.44788 22.8426 3.96788L20.3426 6.46788C19.8226 6.98788 19.8226 7.81788 20.3426 8.33788C20.8626 8.85788 21.6926 8.85788 22.2126 8.33788ZM20.3107 10.2211L17.8107 12.7211C17.3165 13.2153 16.5421 13.2398 16.0201 12.7944C16.4649 13.3087 16.4402 14.0916 15.9462 14.5857L13.4462 17.0857C12.9262 17.6057 12.0962 17.6057 11.5762 17.0857C11.0562 16.5657 11.0562 15.7357 11.5762 15.2157L14.0762 12.7157C14.5718 12.22 15.3492 12.1968 15.8712 12.6461C15.4219 12.1241 15.4451 11.3467 15.9408 10.8511L18.4408 8.35106C18.9608 7.83106 19.7907 7.83106 20.3107 8.35106C20.8307 8.86106 20.8307 9.70105 20.3107 10.2211Z" fill="#FF6723"/>
<path d="M24.4025 6.80803C24.767 6.80803 25.0625 6.51255 25.0625 6.14804C25.0625 5.78353 24.767 5.48804 24.4025 5.48804C24.038 5.48804 23.7425 5.78353 23.7425 6.14804C23.7425 6.51255 24.038 6.80803 24.4025 6.80803ZM20.6607 10.5312C20.6607 10.8957 20.3652 11.1912 20.0007 11.1912C19.6362 11.1912 19.3407 10.8957 19.3407 10.5312C19.3407 10.1667 19.6362 9.87122 20.0007 9.87122C20.3652 9.87122 20.6607 10.1667 20.6607 10.5312ZM16.2961 14.8958C16.2961 15.2604 16.0006 15.5558 15.6361 15.5558C15.2716 15.5558 14.9761 15.2604 14.9761 14.8958C14.9761 14.5313 15.2716 14.2358 15.6361 14.2358C16.0006 14.2358 16.2961 14.5313 16.2961 14.8958ZM14.4261 16.7658C14.4261 17.1303 14.1306 17.4258 13.7661 17.4258C13.4016 17.4258 13.1061 17.1303 13.1061 16.7658C13.1061 16.4013 13.4016 16.1058 13.7661 16.1058C14.1306 16.1058 14.4261 16.4013 14.4261 16.7658ZM18.1307 13.0612C18.4952 13.0612 18.7907 12.7657 18.7907 12.4012C18.7907 12.0367 18.4952 11.7412 18.1307 11.7412C17.7662 11.7412 17.4707 12.0367 17.4707 12.4012C17.4707 12.7657 17.7662 13.0612 18.1307 13.0612ZM23.1925 8.01804C23.1925 8.38254 22.897 8.67804 22.5325 8.67804C22.168 8.67804 21.8725 8.38254 21.8725 8.01804C21.8725 7.65353 22.168 7.35803 22.5325 7.35803C22.897 7.35803 23.1925 7.65353 23.1925 8.01804Z" fill="#321B41"/>
<path d="M20.3125 8.31854C20.2025 8.20854 20.1342 8.08917 20.0742 7.95917L24.334 3.69617C24.464 3.75617 24.594 3.83617 24.704 3.94617C24.814 4.05617 24.9009 4.17682 24.9609 4.30682L20.6914 8.58807C20.5614 8.52807 20.4225 8.42854 20.3125 8.31854ZM15.6693 12.3439C15.7095 12.431 15.7534 12.5134 15.8111 12.5913C15.7359 12.537 15.656 12.4926 15.5761 12.4557L11.3164 16.7188C11.3764 16.8488 11.4447 16.9681 11.5547 17.0781C11.6647 17.1881 11.8036 17.2877 11.9336 17.3477L16.2031 13.0664C16.1661 12.9862 16.1189 12.9096 16.0623 12.8369C16.1352 12.8914 16.2123 12.9385 16.2865 12.9728L20.556 8.69153C20.496 8.56153 20.409 8.44087 20.299 8.33087C20.189 8.22087 20.059 8.14087 19.929 8.08087L15.6693 12.3439Z" fill="#F9C23C"/>
</svg>

<svg xmlns="http://www.w3.org/2000/svg" width="32" height="32" fill="none"><path fill="#9B9B9B" d="M30 4.44h-1v25h1v-25Zm-4 1.9h1v23.1h-1V6.34Zm-2 2.95h-1v20.15h1V9.29Zm-4 3.1h1v17.05h-1V12.39Zm-2 3.01h-1v14.04h1V15.4Zm-4 3.04h1v11h-1v-11Zm-2 1.85h-1v9.15h1v-9.15Zm-9 .27v8.88H2v-8.88h1Zm3 .88H5v8h1v-8Zm2 0h1v8H8v-8Z"/><path fill="#F8312F" d="M24.67 6.8 13.31 18.16c-3 3-7.54 3.74-11.31 1.93v2.16c1.39.54 2.84.82 4.28.82 3.08 0 6.13-1.2 8.44-3.5L26.08 8.21A7.91 7.91 0 0 1 30 6.07V4.04a9.762 9.762 0 0 0-5.33 2.76Z"/><path fill="#FF6723" d="m22.213 8.338 2.5-2.5c.52-.52.52-1.36 0-1.87-.52-.52-1.35-.52-1.87 0l-2.5 2.5c-.52.52-.52 1.35 0 1.87s1.35.52 1.87 0ZM20.31 10.22l-2.5 2.5a1.315 1.315 0 0 1-1.79.073c.444.515.42 1.298-.075 1.792l-2.5 2.5c-.52.52-1.35.52-1.87 0s-.52-1.35 0-1.87l2.5-2.5a1.315 1.315 0 0 1 1.795-.07c-.45-.522-.426-1.3.07-1.795l2.5-2.5c.52-.52 1.35-.52 1.87 0 .52.51.52 1.35 0 1.87Z"/><path fill="#321B41" d="M24.402 6.808a.66.66 0 1 0 0-1.32.66.66 0 0 0 0 1.32Zm-3.741 3.723a.66.66 0 1 1-1.32 0 .66.66 0 0 1 1.32 0Zm-4.365 4.365a.66.66 0 1 1-1.32 0 .66.66 0 0 1 1.32 0Zm-1.87 1.87a.66.66 0 1 1-1.32 0 .66.66 0 0 1 1.32 0Zm3.705-3.705a.66.66 0 1 0 0-1.32.66.66 0 0 0 0 1.32Zm5.061-5.043a.66.66 0 1 1-1.32 0 .66.66 0 0 1 1.32 0Z"/><path fill="#F9C23C" d="M20.313 8.319c-.11-.11-.179-.23-.239-.36l4.26-4.263a1.258 1.258 0 0 1 .627.61l-4.27 4.282c-.13-.06-.268-.16-.378-.27Zm-4.644 4.025c.04.087.084.17.142.247a1.412 1.412 0 0 0-.235-.135l-4.26 4.263c.06.13.129.25.239.36.11.11.249.209.379.269l4.27-4.282a1.175 1.175 0 0 0-.142-.23c.073.055.15.102.224.137l4.27-4.281a1.259 1.259 0 0 0-.627-.611l-4.26 4.263Z"/></svg>
